!!!OTL: Gongshe de maiduo xiangshanliang
!!!ARE: Asia, China,ÿNingxia Yanchi
!! I, 161, 1)
!!!SCT: C1828
!!!YEM: Copyright 1995, estate of Helmut Schaffrath.
**kern
*ICvox
*Ivox
*M2/4
*k[f#]
*G:
{16g
16a
8e
8d
8d
=1
4.dd
8r
=2
16dd
16ee
16cc
16a
16dd
16ee
16cc
16a
=3
4.g
8r}
=4
{8a
4f#
8g
=5
8a
8a
4dd
=6
8g
8a
4e
=7
4.d
8r}
==
!!!AGN: Shange, Xintianyou
!! Han
!!!ONB: ESAC (Essen Associative Code) Database: SENGANSU
!!!AMT: simple duple
!!!AIN: vox
!!!EED: Helmut Schaffrath
!!!EEV: 1.0
*-
